X: 81
T:Wild Hog in the Woods
M:4/4
L:1/4
K:F
c d e|f2 f  f-|f  c A c|d2 d d-|d c d e|!
f2 f f|c A c A-|AA FG|F4:|!
F4 (3 G/4A/4c/4)|d c A F|G2 G> A|G F D C|!
F4 G/4A/4c/4|d c A F|A A FG|F4:||
